logo/conan-io.svg

<?xml version="1.0" encoding="UTF-8"?>
<svg width="241px" height="256px" viewBox="0 0 241 256" version="1.1" xmlns="http://www.w3.org/2000/svg" xmlns:xlink="http://www.w3.org/1999/xlink" preserveAspectRatio="xMidYMid">
    <g>
				<polygon fill="#AFD4E5" points="118.874 0 0 56.984 118.874 129.541 240.278 63.448"></polygon>
				<polygon fill="#6699CC" points="0.0002 170.5869 118.8742 255.9999 118.8742 129.5409 0.0002 56.9849"></polygon>
				<polygon fill="#7DA7D3" points="118.874 129.5406 118.874 255.9996 240.278 176.9806 240.278 63.4486"></polygon>
				<polygon fill="#336699" points="184.5564 213.2489 187.3874 211.4059 184.9874 93.5489 182.8444 94.7149"></polygon>
				<path d="M161.9109,77.054 L192.4119,60.586 C192.4119,60.586 146.4429,10.429 92.3019,39.553 C66.8309,53.255 59.2399,67.026 70.5159,81.73 C89.1779,106.068 111.6869,103.336 111.6869,103.336 L141.0399,89.05 C141.0399,89.05 109.1639,93.255 95.6839,82.091 C84.6269,72.932 89.2699,61.274 104.5289,50.651 C117.9169,41.33 144.5649,45.086 154.0079,52.215 C163.4499,59.342 167.1189,69.31 161.9109,77.054" fill="#6699CC"></path>
		</g>
</svg>

<svg viewBox="0 0 241 256" xmlns="http://www.w3.org/2000/svg"><path fill="#AFD4E5" d="M118.874 0L0 56.98l118.874 72.557 121.404-66.1Z"/><path fill="#69C" d="M0 170.58l118.874 85.41 0-126.459L0 56.97Z"/><path fill="#7DA7D3" d="M118.874 129.54l0 126.459 121.404-79.02 0-113.54Z"/><path fill="#369" d="M184.55 213.24l2.83-1.85 -2.4-117.857 -2.15 1.16Z"/><path fill="#69C" d="M161.91 77.054l30.5-16.47s-45.97-50.157-100.11-21.033c-25.48 13.7-33.062 27.473-21.786 42.17 18.66 24.33 41.17 21.6 41.17 21.6l29.35-14.29s-31.88 4.2-45.36-6.96c-11.06-9.16-6.42-20.82 8.84-31.44 13.38-9.33 40.03-5.57 49.479 1.56 9.44 7.12 13.11 17.095 7.9 24.839"/></svg>
